!!!COM: Schiørring, Niels
!!!CDT: 1743-1798
!!!OPR@@DA: Choral-Bog
!!!ONM: 78
!!!OTL@@DA: D! du ftore Seyer-Herre
**kern	**fb	**kern	**kern	**kern	**kern	**kern	**kern	**kern
*part6	*part6	*part6	*part5	*part5	*part4	*part3	*part2	*part1
*staff8	*	*staff7	*staff6	*staff5	*staff4	*staff3	*staff2	*staff1
*clefF4	*	*clefC1	*clefF4	*clefC1	*clefF4	*clefC4	*clefC3	*clefC1
*	*	*	*	*	*	*Trd0c0	*	*
*k[b-e-a-]	*	*k[b-e-a-]	*k[b-e-a-]	*k[b-e-a-]	*k[b-e-a-]	*k[b-e-a-]	*k[b-e-a-]	*k[b-e-a-]
*E-:	*	*E-:	*E-:	*E-:	*E-:	*E-:	*E-:	*E-:
*M4/4	*	*M4/4	*M4/4	*M4/4	*M4/4	*M4/4	*M4/4	*M4/4
*met(c)	*	*met(c)	*met(c)	*met(c)	*met(c)	*met(c)	*met(c)	*met(c)
*MM180	*	*MM180	*MM180	*MM180	*MM180	*MM180	*MM180	*MM180
=1	=1	=1	=1	=1	=1	=1	=1	=1
*	*	*	*^	*^	*	*	*	*
2E-	.	2e-	2E-	2G	2e-	2B-	2E-	2g	2B-	2e-
2D	6	2f	2D	4F	2f	2B-	2D	2b-	2f	2f
.	.	.	.	4B-	.	.	.	.	.	.
=2	=2	=2	=2	=2	=2	=2	=2	=2	=2	=2
2E-	.	2g	2E-	2B-	2g	2e-	2E-	2b-	2e-	2g
2BB-	.	2f	2BB-	2B-	2f	2d	2BB-	2b-	2d	2f
=3	=3	=3	=3	=3	=3	=3	=3	=3	=3	=3
*	*	*	*	*	*	*^	*	*	*	*
2E-	.	2g	2E-	2B-	2g	2ryy@	2e-\	2E-	2b-	2e-	2g
*	*	*	*v	*v	*	*	*	*	*	*	*
2C	nr6	2an	2C	2an	[2e-	2e-/	2C	2cc	[2e-	2an
=4	=4	=4	=4	=4	=4	=4	=4	=4	=4	=4
1BB-	4	2b-	1BB-	2b-	2e-]	1f\	2BB-	2f	2e-]	2b-
.	3	2b-	.	2b-	2d	.	2BB-	2f	2d	2b-
=5	=5	=5	=5	=5	=5	=5	=5	=5	=5	=5
2GG	6	2ee-	2GG	2ee-	2g	2b-\	2GG	2b-	2e-	2ee-
2AAn	5	2ee-	2AAn	2ee-	2f	[2cc\	2AAn	[2cc	2f	2ee-
=6	=6	=6	=6	=6	=6	=6	=6	=6	=6	=6
2BB-	9	2dd	2BB-	2dd	2f	2cc\]	2BB-	2cc]	2f	2dd
2En	7 5	2dd	2En	2dd	[2g	[2b-\	2En	[2b-	[2g	2dd
=7	=7	=7	=7	=7	=7	=7	=7	=7	=7	=7
*	*	*	*	*	*	*	*^	*	*	*
2F	9 4	2cc	2F	2cc	2g]	2b-\]	2F	2F	2b-]	2g]	2cc
2FF	8 n	2cc	2FF	2cc	4f	2an\	2F	2FF	2an	(4f	2cc
=8	=8	=8	=8	=8	=8	=8	=8	=8	=8	=8	=8
1BB-	4	1b-	1BB-	1b-	2e-	1f\	1BB-	1r	1b-	(2e-	1b-
*	*	*	*	*	*v	*v	*	*	*	*	*
=9:|!	=9:|!	=9:|!	=9:|!	=9:|!	=9:|!	=9:|!	=9:|!	=9:|!	=9:|!	=9:|!
*	*	*	*^	*	*	*	*	*	*	*
2C	3	2ee-	2C	2G	2ee-	2e-	2C	1r	2g	2e-	2ee-
2D	6	2b-	2D	2B-	2b-	2f	2D	.	[2b-	2f	2b-
=10	=10	=10	=10	=10	=10	=10	=10	=10	=10	=10	=10
2En	5	2cc	2En	2B-	2cc	2g	2En	1r	2b-]	2g	2cc
2F	.	2cc	2F	2A-	2cc	2f	2F	.	2a-	2f	2cc
=11	=11	=11	=11	=11	=11	=11	=11	=11	=11	=11	=11
2D	6	2b-	2D	1B-	2b-	2f	2D	1r	2b-	2f	2b-
2BB-	7	2a-	2BB-	.	2a-	2d	2BB-	.	2b-	2d	2a-
*	*	*	*v	*v	*	*	*	*	*	*	*
=12	=12	=12	=12	=12	=12	=12	=12	=12	=12	=12
*	*	*	*	*	*^	*	*	*	*	*
2E-	.	2g	2E-	2g	2B-	2e-\	2E-	2E-	2b-	2e-	2g
2EE-	.	2e-	2EE-	2e-	2G	2B-\	2E-	2EE-	2g	2B-	2e-
=13	=13	=13	=13	=13	=13	=13	=13	=13	=13	=13	=13
2E-	.	2g	2E-	2g	2B-	2e-\	2E-	1r	2b-	2e-	2g
2C	6	2a-	2C	2a-	2c	2e-\	2C	.	2cc	2e-	2a-
=14	=14	=14	=14	=14	=14	=14	=14	=14	=14	=14	=14
2GG	6	2b-	2GG	2b-	2e-	2g\	2G	2GG	2b-	2e-	2b-
2EEn	5	2b-	2EEn	2b-	2c	2g\	2En	2EEn	2cc	2g	2b-
=15	=15	=15	=15	=15	=15	=15	=15	=15	=15	=15	=15
2FF	5	2a-	2FF	2a-	4c	2f\	2F	2FF	(4cc	2f	2a-
4GG	6	2g	4GG	2g	2B-	[2e-Xi\	(4G	4GG	2b-	[2e-	2g
4AA-	.	.	4AA-	.	.	.	4A-)	4AA-	.	.	.
=16	=16	=16	=16	=16	=16	=16	=16	=16	=16	=16	=16
1BB-	4	1f	1BB-	1f	1B-	2e-\]	1B-	1BB-	1b-	(2e-]	1f
*	*	*	*	*	*v	*v	*	*	*	*	*
=17	=17	=17	=17	=17	=17	=17	=17	=17	=17	=17
*	*	*	*^	*	*	*	*	*	*	*
2G	-r5	2b-	2G	1d-X	2b-	2e-	2G	1r	2dd-X	2e-	2b-
2E-	-7	2b-	2E-	.	2b-	2g	2E-	.	2dd-	2g	2b-
=18	=18	=18	=18	=18	=18	=18	=18	=18	=18	=18	=18
2A-	.	2a-	2A-	2c	2a-	2e-	2A-	1r	2cc	2e-	2a-
2E-	.	2g	2E-	2B-	2g	2e-	2E-	.	2b-	2e-	2g
=19	=19	=19	=19	=19	=19	=19	=19	=19	=19	=19	=19
*	*	*	*	*	*	*^	*	*	*	*	*
2D	5	2a-	2D	2B-	2a-	2ryy@	2f\	2D	1r	2b-	2f	2a-
*	*	*	*v	*v	*	*	*	*	*	*	*	*
2BB-	.	2b-	2BB-	2b-	2d	2f\	2BB-	.	2dd	2f	2b-
=20	=20	=20	=20	=20	=20	=20	=20	=20	=20	=20	=20
2E-	.	2g	2E-	2g	2B-	2e-\	2E-	2E-	2b-	2e-	2g
2EE-	.	2e-	2EE-	2e-	2G	2B-\	2E-	2EE-	2g	2B-	2e-
*	*	*	*	*	*v	*v	*	*	*	*	*
=21	=21	=21	=21	=21	=21	=21	=21	=21	=21	=21
*	*	*	*^	*	*	*	*	*	*	*
2D	6	2f	2D	1B-	2f	2d	2D	1r	2b-	2d	2f
2D-X	2	2g	2D-X	.	2g	2e-	2D-X	.	2b-	2e-	2g
=22	=22	=22	=22	=22	=22	=22	=22	=22	=22	=22	=22
4C	6	2a-	4C	4c	2a-	4e-	(4C	1r	(4cc	(4e-	2a-
4Dni	5	.	4Dni	2.B-	.	2f	4Dni)	.	4b-)	2f)	.
2E-	9	2g	2E-	.	2g	.	2E-	.	2b-	.	2g
*	*	*	*v	*v	*	*	*	*	*	*	*
=23	=23	=23	=23	=23	=23	=23	=23	=23	=23	=23
*	*	*	*	*	*^	*	*	*	*	*
2AA-	6 5	2f	2AA-	2f	2c	2e-\	2AA-	1r	2cc	2e-	2f
2BB-	8	2f	2BB-	2f	4B-	2d\	2BB-	.	(4b-	2d	2f
=24	=24	=24	=24	=24	=24	=24	=24	=24	=24	=24	=24
1EE-	4	1e-	1EE-	1e-	2A-	1B-\	1E-	1EE-	(2a-	1e-	1e-
*	*	*	*	*v	*v	*v	*	*	*	*	*
*	*	*	*	*	*v	*v	*	*	*
==	==	==	==	==	==	==	==	==
*-	*-	*-	*-	*-	*-	*-	*-	*-
!!!system-decoration: {(s1,s2,s3,s4)}{(s5,s6)}{(s7,s8)}
!!!RDF**kern: i = editorial accidental
!!!AGN: chorale
!!!EED: Derek Remeš
!!!EED2: Victor Phan
!!!END: 2023/11/28
!!!ENC: Wolfgang Drescher
!!!EEV: 2023/11/28
!!!title: @{ONM}. @{OTL}